X:420
T:Buskin. (p).1701.PLFD1.420
M:4/4
L:1/8
Q:1/2=100
S:Playford, Dancing Master,11th Ed.,1701.
O:England;London
Z:Chris Partington.
K:D
A2|d2AGF2A2|BAGFE2G2|AGFED2F2|EDCB,A,2A2|
d2AGF2B2|e2cBA2fg|afd2A2c2|d6:|
|:f2|f2dfa2fd|f2dfe2cA|d2cdB2GB|e2Bec2A2|
gagab2ag|fdfga2fd|e2deA2c2|d6:|
